src/assets/images/building4.svg

<?xml version="1.0" encoding="UTF-8"?>
<svg viewBox="0 0 546 2120" xmlns="http://www.w3.org/2000/svg">
<path d="m545.26 342.53v-59.972h-25.02v-67.267h-115.58v-118.13h-11.111v118.13h-28.576v-215.29h-11.112v215.29h-81.235v-108.93h9.269v-19.051h-221.44v19.051h9.2689v108.93h-44.71v67.267h-25.02v59.972h25.02v59.221h-25.02v59.971h25.02v59.224h-25.02v59.971h25.02v59.221h-25.02v59.972h25.02v59.224h-25.02v59.971h25.02v59.221h-25.02v59.975h25.02v59.221h-25.02v59.971h25.02v59.22h-25.02v59.98h25.02v59.22h-25.02v59.97h25.02v59.22h-25.02v59.97h25.02v59.22h-25.02v59.98h25.02v59.22h-25.02v59.97h25.02v59.22h-25.02v59.97h25.02v59.23h-25.02v59.97h25.02v227.24h495.22v-227.24h25.02v-59.97h-25.02v-59.23h25.02v-59.97h-25.02v-59.22h25.02v-59.97h-25.02v-59.22h25.02v-59.98h-25.02v-59.22h25.02v-59.97h-25.02v-59.22h25.02v-59.97h-25.02v-59.22h25.02v-59.98h-25.02v-59.22h25.02v-59.971h-25.02v-59.221h25.02v-59.975h-25.02v-59.221h25.02v-59.971h-25.02v-59.224h25.02v-59.972h-25.02v-59.221h25.02v-59.971h-25.02v-59.224h25.02v-59.971h-25.02v-59.221h25.02z" fill="#B1B1B1"/>
<path d="m94.777 355.01h-39.008v39.008h39.008v-39.008z" fill="#BABABA"/>
<path d="m173.72 355.01h-39.008v39.008h39.008v-39.008z" fill="#BABABA"/>
<path d="m252.66 355.01h-39.008v39.008h39.008v-39.008z" fill="#BABABA"/>
<path d="m331.61 355.01h-39.007v39.008h39.007v-39.008z" fill="#BABABA"/>
<path d="m410.55 355.01h-39.007v39.008h39.007v-39.008z" fill="#BABABA"/>
<path d="m489.5 355.01h-39.008v39.008h39.008v-39.008z" fill="#BABABA"/>
<path d="m94.777 471.1h-39.008v39.007h39.008v-39.007z" fill="#BABABA"/>
<path d="m173.72 471.1h-39.008v39.007h39.008v-39.007z" fill="#BABABA"/>
<path d="m252.66 471.1h-39.008v39.007h39.008v-39.007z" fill="#BABABA"/>
<path d="m331.61 471.1h-39.007v39.007h39.007v-39.007z" fill="#BABABA"/>
<path d="m410.55 471.1h-39.007v39.007h39.007v-39.007z" fill="#BABABA"/>
<path d="m489.5 471.1h-39.008v39.007h39.008v-39.007z" fill="#BABABA"/>
<path d="m94.777 590.91h-39.008v39.007h39.008v-39.007z" fill="#BABABA"/>
<path d="m173.72 590.91h-39.008v39.007h39.008v-39.007z" fill="#BABABA"/>
<path d="m252.66 590.91h-39.008v39.007h39.008v-39.007z" fill="#BABABA"/>
<path d="m331.61 590.91h-39.007v39.007h39.007v-39.007z" fill="#BABABA"/>
<path d="m410.55 590.91h-39.007v39.007h39.007v-39.007z" fill="#BABABA"/>
<path d="m489.5 590.91h-39.008v39.007h39.008v-39.007z" fill="#BABABA"/>
<path d="m94.777 710.72h-39.008v39.008h39.008v-39.008z" fill="#BABABA"/>
<path d="m173.72 710.72h-39.008v39.008h39.008v-39.008z" fill="#BABABA"/>
<path d="m252.66 710.72h-39.008v39.008h39.008v-39.008z" fill="#BABABA"/>
<path d="m331.61 710.72h-39.007v39.008h39.007v-39.008z" fill="#BABABA"/>
<path d="m410.55 710.72h-39.007v39.008h39.007v-39.008z" fill="#BABABA"/>
<path d="m489.5 710.72h-39.008v39.008h39.008v-39.008z" fill="#BABABA"/>
<path d="m94.777 826.81h-39.008v39.008h39.008v-39.008z" fill="#BABABA"/>
<path d="m173.72 826.81h-39.008v39.008h39.008v-39.008z" fill="#BABABA"/>
<path d="m252.66 826.81h-39.008v39.008h39.008v-39.008z" fill="#BABABA"/>
<path d="m331.61 826.81h-39.007v39.008h39.007v-39.008z" fill="#BABABA"/>
<path d="m410.55 826.81h-39.007v39.008h39.007v-39.008z" fill="#BABABA"/>
<path d="m489.5 826.81h-39.008v39.008h39.008v-39.008z" fill="#BABABA"/>
<path d="m94.777 946.62h-39.008v39.007h39.008v-39.007z" fill="#BABABA"/>
<path d="m173.72 946.62h-39.008v39.007h39.008v-39.007z" fill="#BABABA"/>
<path d="m252.66 946.62h-39.008v39.007h39.008v-39.007z" fill="#BABABA"/>
<path d="m331.61 946.62h-39.007v39.007h39.007v-39.007z" fill="#BABABA"/>
<path d="m410.55 946.62h-39.007v39.007h39.007v-39.007z" fill="#BABABA"/>
<path d="m489.5 946.62h-39.008v39.007h39.008v-39.007z" fill="#BABABA"/>
<path d="m94.777 1070.2h-39.008v39h39.008v-39z" fill="#BABABA"/>
<path d="m173.72 1070.2h-39.008v39h39.008v-39z" fill="#BABABA"/>
<path d="m252.66 1070.2h-39.008v39h39.008v-39z" fill="#BABABA"/>
<path d="m331.61 1070.2h-39.007v39h39.007v-39z" fill="#BABABA"/>
<path d="m410.55 1070.2h-39.007v39h39.007v-39z" fill="#BABABA"/>
<path d="m489.5 1070.2h-39.008v39h39.008v-39z" fill="#BABABA"/>
<path d="m94.777 1190h-39.008v39h39.008v-39z" fill="#BABABA"/>
<path d="m173.72 1190h-39.008v39h39.008v-39z" fill="#BABABA"/>
<path d="m252.66 1190h-39.008v39h39.008v-39z" fill="#BABABA"/>
<path d="m331.61 1190h-39.007v39h39.007v-39z" fill="#BABABA"/>
<path d="m410.55 1190h-39.007v39h39.007v-39z" fill="#BABABA"/>
<path d="m489.5 1190h-39.008v39h39.008v-39z" fill="#BABABA"/>
<path d="m94.777 1306h-39.008v39.01h39.008v-39.01z" fill="#BABABA"/>
<path d="m173.72 1306h-39.008v39.01h39.008v-39.01z" fill="#BABABA"/>
<path d="m252.66 1306h-39.008v39.01h39.008v-39.01z" fill="#BABABA"/>
<path d="m331.61 1306h-39.007v39.01h39.007v-39.01z" fill="#BABABA"/>
<path d="m410.55 1306h-39.007v39.01h39.007v-39.01z" fill="#BABABA"/>
<path d="m489.5 1306h-39.008v39.01h39.008v-39.01z" fill="#BABABA"/>
<path d="m94.777 1425.9h-39.008v39.01h39.008v-39.01z" fill="#BABABA"/>
<path d="m173.72 1425.9h-39.008v39.01h39.008v-39.01z" fill="#BABABA"/>
<path d="m252.66 1425.9h-39.008v39.01h39.008v-39.01z" fill="#BABABA"/>
<path d="m331.61 1425.9h-39.007v39.01h39.007v-39.01z" fill="#BABABA"/>
<path d="m410.55 1425.9h-39.007v39.01h39.007v-39.01z" fill="#BABABA"/>
<path d="m489.5 1425.9h-39.008v39.01h39.008v-39.01z" fill="#BABABA"/>
<path d="m94.777 1542h-39.008v39.01h39.008v-39.01z" fill="#BABABA"/>
<path d="m173.72 1542h-39.008v39.01h39.008v-39.01z" fill="#BABABA"/>
<path d="m252.66 1542h-39.008v39.01h39.008v-39.01z" fill="#BABABA"/>
<path d="m331.61 1542h-39.007v39.01h39.007v-39.01z" fill="#BABABA"/>
<path d="m410.55 1542h-39.007v39.01h39.007v-39.01z" fill="#BABABA"/>
<path d="m489.5 1542h-39.008v39.01h39.008v-39.01z" fill="#BABABA"/>
<path d="m94.777 1669.2h-39.008v39.01h39.008v-39.01z" fill="#BABABA"/>
<path d="m173.72 1669.2h-39.008v39.01h39.008v-39.01z" fill="#BABABA"/>
<path d="m252.66 1669.2h-39.008v39.01h39.008v-39.01z" fill="#BABABA"/>
<path d="m331.61 1669.2h-39.007v39.01h39.007v-39.01z" fill="#BABABA"/>
<path d="m410.55 1669.2h-39.007v39.01h39.007v-39.01z" fill="#BABABA"/>
<path d="m489.5 1669.2h-39.008v39.01h39.008v-39.01z" fill="#BABABA"/>
<path d="m94.777 1783.7h-39.008v39.01h39.008v-39.01z" fill="#BABABA"/>
<path d="m173.72 1783.7h-39.008v39.01h39.008v-39.01z" fill="#BABABA"/>
<path d="m252.66 1783.7h-39.008v39.01h39.008v-39.01z" fill="#BABABA"/>
<path d="m331.61 1783.7h-39.007v39.01h39.007v-39.01z" fill="#BABABA"/>
<path d="m410.55 1783.7h-39.007v39.01h39.007v-39.01z" fill="#BABABA"/>
<path d="m489.5 1783.7h-39.008v39.01h39.008v-39.01z" fill="#BABABA"/>
</svg>

<svg width="546" height="2120" viewBox="0 0 546 2120" fill="none" xmlns="http://www.w3.org/2000/svg">
<path d="M545.265 342.527V282.555H520.245V215.288H404.667V97.1547H393.556V215.288H364.98V0H353.868V215.288H272.633V106.357H281.902V87.3062H60.4616V106.357H69.7305V215.288H25.0205V282.555H0V342.527H25.0205V401.748H0V461.719H25.0205V520.943H0V580.914H25.0205V640.135H0V700.107H25.0205V759.331H0V819.302H25.0205V878.523H0V938.498H25.0205V997.719H0V1057.69H25.0205V1116.91H0V1176.89H25.0205V1236.11H0V1296.08H25.0205V1355.3H0V1415.27H25.0205V1474.49H0V1534.47H25.0205V1593.69H0V1653.66H25.0205V1712.88H0V1772.85H25.0205V1832.08H0V1892.05H25.0205V2119.29H520.245V1892.05H545.265V1832.08H520.245V1772.85H545.265V1712.88H520.245V1653.66H545.265V1593.69H520.245V1534.47H545.265V1474.49H520.245V1415.27H545.265V1355.3H520.245V1296.08H545.265V1236.11H520.245V1176.89H545.265V1116.91H520.245V1057.69H545.265V997.719H520.245V938.498H545.265V878.523H520.245V819.302H545.265V759.331H520.245V700.107H545.265V640.135H520.245V580.914H545.265V520.943H520.245V461.719H545.265V401.748H520.245V342.527H545.265Z" fill="#AAB1B3"/>
<path d="M94.7771 355.009H55.7696V394.017H94.7771V355.009Z" fill="#AEB6B8"/>
<path d="M173.721 355.009H134.713V394.017H173.721V355.009Z" fill="#AEB6B8"/>
<path d="M252.665 355.009H213.657V394.017H252.665V355.009Z" fill="#AEB6B8"/>
<path d="M331.608 355.009H292.601V394.017H331.608V355.009Z" fill="#AEB6B8"/>
<path d="M410.552 355.009H371.545V394.017H410.552V355.009Z" fill="#AEB6B8"/>
<path d="M489.496 355.009H450.488V394.017H489.496V355.009Z" fill="#AEB6B8"/>
<path d="M94.7771 471.103H55.7696V510.11H94.7771V471.103Z" fill="#AEB6B8"/>
<path d="M173.721 471.103H134.713V510.11H173.721V471.103Z" fill="#AEB6B8"/>
<path d="M252.665 471.103H213.657V510.11H252.665V471.103Z" fill="#AEB6B8"/>
<path d="M331.608 471.103H292.601V510.11H331.608V471.103Z" fill="#AEB6B8"/>
<path d="M410.552 471.103H371.545V510.11H410.552V471.103Z" fill="#AEB6B8"/>
<path d="M489.496 471.103H450.488V510.11H489.496V471.103Z" fill="#AEB6B8"/>
<path d="M94.7771 590.912H55.7696V629.919H94.7771V590.912Z" fill="#AEB6B8"/>
<path d="M173.721 590.912H134.713V629.919H173.721V590.912Z" fill="#AEB6B8"/>
<path d="M252.665 590.912H213.657V629.919H252.665V590.912Z" fill="#AEB6B8"/>
<path d="M331.608 590.912H292.601V629.919H331.608V590.912Z" fill="#AEB6B8"/>
<path d="M410.552 590.912H371.545V629.919H410.552V590.912Z" fill="#AEB6B8"/>
<path d="M489.496 590.912H450.488V629.919H489.496V590.912Z" fill="#AEB6B8"/>
<path d="M94.7771 710.72H55.7696V749.728H94.7771V710.72Z" fill="#AEB6B8"/>
<path d="M173.721 710.72H134.713V749.728H173.721V710.72Z" fill="#AEB6B8"/>
<path d="M252.665 710.72H213.657V749.728H252.665V710.72Z" fill="#AEB6B8"/>
<path d="M331.608 710.72H292.601V749.728H331.608V710.72Z" fill="#AEB6B8"/>
<path d="M410.552 710.72H371.545V749.728H410.552V710.72Z" fill="#AEB6B8"/>
<path d="M489.496 710.72H450.488V749.728H489.496V710.72Z" fill="#AEB6B8"/>
<path d="M94.7771 826.814H55.7696V865.822H94.7771V826.814Z" fill="#AEB6B8"/>
<path d="M173.721 826.814H134.713V865.822H173.721V826.814Z" fill="#AEB6B8"/>
<path d="M252.665 826.814H213.657V865.822H252.665V826.814Z" fill="#AEB6B8"/>
<path d="M331.608 826.814H292.601V865.822H331.608V826.814Z" fill="#AEB6B8"/>
<path d="M410.552 826.814H371.545V865.822H410.552V826.814Z" fill="#AEB6B8"/>
<path d="M489.496 826.814H450.488V865.822H489.496V826.814Z" fill="#AEB6B8"/>
<path d="M94.7771 946.623H55.7696V985.63H94.7771V946.623Z" fill="#AEB6B8"/>
<path d="M173.721 946.623H134.713V985.63H173.721V946.623Z" fill="#AEB6B8"/>
<path d="M252.665 946.623H213.657V985.63H252.665V946.623Z" fill="#AEB6B8"/>
<path d="M331.608 946.623H292.601V985.63H331.608V946.623Z" fill="#AEB6B8"/>
<path d="M410.552 946.623H371.545V985.63H410.552V946.623Z" fill="#AEB6B8"/>
<path d="M489.496 946.623H450.488V985.63H489.496V946.623Z" fill="#AEB6B8"/>
<path d="M94.7771 1070.15H55.7696V1109.15H94.7771V1070.15Z" fill="#AEB6B8"/>
<path d="M173.721 1070.15H134.713V1109.15H173.721V1070.15Z" fill="#AEB6B8"/>
<path d="M252.665 1070.15H213.657V1109.15H252.665V1070.15Z" fill="#AEB6B8"/>
<path d="M331.608 1070.15H292.601V1109.15H331.608V1070.15Z" fill="#AEB6B8"/>
<path d="M410.552 1070.15H371.545V1109.15H410.552V1070.15Z" fill="#AEB6B8"/>
<path d="M489.496 1070.15H450.488V1109.15H489.496V1070.15Z" fill="#AEB6B8"/>
<path d="M94.7771 1189.96H55.7696V1228.96H94.7771V1189.96Z" fill="#AEB6B8"/>
<path d="M173.721 1189.96H134.713V1228.96H173.721V1189.96Z" fill="#AEB6B8"/>
<path d="M252.665 1189.96H213.657V1228.96H252.665V1189.96Z" fill="#AEB6B8"/>
<path d="M331.608 1189.96H292.601V1228.96H331.608V1189.96Z" fill="#AEB6B8"/>
<path d="M410.552 1189.96H371.545V1228.96H410.552V1189.96Z" fill="#AEB6B8"/>
<path d="M489.496 1189.96H450.488V1228.96H489.496V1189.96Z" fill="#AEB6B8"/>
<path d="M94.7771 1306.05H55.7696V1345.06H94.7771V1306.05Z" fill="#AEB6B8"/>
<path d="M173.721 1306.05H134.713V1345.06H173.721V1306.05Z" fill="#AEB6B8"/>
<path d="M252.665 1306.05H213.657V1345.06H252.665V1306.05Z" fill="#AEB6B8"/>
<path d="M331.608 1306.05H292.601V1345.06H331.608V1306.05Z" fill="#AEB6B8"/>
<path d="M410.552 1306.05H371.545V1345.06H410.552V1306.05Z" fill="#AEB6B8"/>
<path d="M489.496 1306.05H450.488V1345.06H489.496V1306.05Z" fill="#AEB6B8"/>
<path d="M94.7771 1425.86H55.7696V1464.87H94.7771V1425.86Z" fill="#AEB6B8"/>
<path d="M173.721 1425.86H134.713V1464.87H173.721V1425.86Z" fill="#AEB6B8"/>
<path d="M252.665 1425.86H213.657V1464.87H252.665V1425.86Z" fill="#AEB6B8"/>
<path d="M331.608 1425.86H292.601V1464.87H331.608V1425.86Z" fill="#AEB6B8"/>
<path d="M410.552 1425.86H371.545V1464.87H410.552V1425.86Z" fill="#AEB6B8"/>
<path d="M489.496 1425.86H450.488V1464.87H489.496V1425.86Z" fill="#AEB6B8"/>
<path d="M94.7771 1541.95H55.7696V1580.96H94.7771V1541.95Z" fill="#AEB6B8"/>
<path d="M173.721 1541.95H134.713V1580.96H173.721V1541.95Z" fill="#AEB6B8"/>
<path d="M252.665 1541.95H213.657V1580.96H252.665V1541.95Z" fill="#AEB6B8"/>
<path d="M331.608 1541.95H292.601V1580.96H331.608V1541.95Z" fill="#AEB6B8"/>
<path d="M410.552 1541.95H371.545V1580.96H410.552V1541.95Z" fill="#AEB6B8"/>
<path d="M489.496 1541.95H450.488V1580.96H489.496V1541.95Z" fill="#AEB6B8"/>
<path d="M94.7771 1669.19H55.7696V1708.2H94.7771V1669.19Z" fill="#AEB6B8"/>
<path d="M173.721 1669.19H134.713V1708.2H173.721V1669.19Z" fill="#AEB6B8"/>
<path d="M252.665 1669.19H213.657V1708.2H252.665V1669.19Z" fill="#AEB6B8"/>
<path d="M331.608 1669.19H292.601V1708.2H331.608V1669.19Z" fill="#AEB6B8"/>
<path d="M410.552 1669.19H371.545V1708.2H410.552V1669.19Z" fill="#AEB6B8"/>
<path d="M489.496 1669.19H450.488V1708.2H489.496V1669.19Z" fill="#AEB6B8"/>
<path d="M94.7771 1783.74H55.7696V1822.75H94.7771V1783.74Z" fill="#AEB6B8"/>
<path d="M173.721 1783.74H134.713V1822.75H173.721V1783.74Z" fill="#AEB6B8"/>
<path d="M252.665 1783.74H213.657V1822.75H252.665V1783.74Z" fill="#AEB6B8"/>
<path d="M331.608 1783.74H292.601V1822.75H331.608V1783.74Z" fill="#AEB6B8"/>
<path d="M410.552 1783.74H371.545V1822.75H410.552V1783.74Z" fill="#AEB6B8"/>
<path d="M489.496 1783.74H450.488V1822.75H489.496V1783.74Z" fill="#AEB6B8"/>
</svg>
